src/Eleven-Dark/16/symbolic/categories/emoji-activity-symbolic.svg

<?xml version="1.0" encoding="UTF-8" standalone="no"?>
<svg
   width="16"
   height="16"
   version="1.1"
   id="svg1"
   sodipodi:docname="emoji-activity-symbolic.svg"
   inkscape:version="1.4.2 (ebf0e940d0, 2025-05-08)"
   xmlns:inkscape="http://www.inkscape.org/namespaces/inkscape"
   xmlns:sodipodi="http://sodipodi.sourceforge.net/DTD/sodipodi-0.dtd"
   xmlns="http://www.w3.org/2000/svg"
   xmlns:svg="http://www.w3.org/2000/svg">
  <defs
     id="defs1">
     <style
        id="current-color-scheme"
        type="text/css">
        .ColorScheme-Text { color:#dedede; }
        .ColorScheme-NeutralText { color:#f67400; }
        .ColorScheme-PositiveText { color:#37c837; }
        .ColorScheme-NegativeText { color:#f44336; }
        .ColorScheme-Highlight { color:#3daee9; }
     </style>
  </defs>
  <sodipodi:namedview
     id="namedview1"
     pagecolor="#ffffff"
     bordercolor="#000000"
     borderopacity="0.25"
     inkscape:showpageshadow="2"
     inkscape:pageopacity="0.0"
     inkscape:pagecheckerboard="0"
     inkscape:deskcolor="#d1d1d1"
     inkscape:zoom="49.6875"
     inkscape:cx="8"
     inkscape:cy="8"
     inkscape:window-width="1920"
     inkscape:window-height="1010"
     inkscape:window-x="0"
     inkscape:window-y="0"
     inkscape:window-maximized="1"
     inkscape:current-layer="svg1" />
  <path
     id="path1"
     style="fill:currentColor"
     class="ColorScheme-Text"
     d="M 8 0 C 3.588 0 0 3.588 0 8 C 0 12.412 3.588 16 8 16 C 12.412 16 16 12.412 16 8 C 16 3.588 12.412 0 8 0 z M 8 1 C 8.023 1 8.0453594 1.0039062 8.0683594 1.0039062 C 8.0283594 1.3299063 8 1.662 8 2 C 8 2.246 8.0112031 2.4904687 8.0332031 2.7304688 L 7.0292969 2.8867188 L 7.1816406 3.875 L 8.1933594 3.71875 A 7.94 7.94 0 0 0 9.4609375 6.5917969 L 8.6640625 7.2304688 L 9.2929688 8.0078125 L 10.087891 7.3671875 A 8.04 8.04 0 0 0 12.613281 9.234375 L 12.251953 10.171875 L 13.183594 10.533203 L 13.546875 9.5976562 C 13.932875 9.7216563 14.326328 9.824625 14.736328 9.890625 A 6.987 6.987 0 0 1 8 15 C 7.943 15 7.8880313 14.994187 7.8320312 14.992188 C 7.9020313 14.433188 7.8967031 13.859297 7.8457031 13.279297 L 8.8691406 13.121094 L 8.7148438 12.132812 L 7.7070312 12.289062 A 7.91 7.91 0 0 0 6.4375 9.4199219 L 7.234375 8.7792969 L 6.6074219 8 L 5.8027344 8.6464844 A 8.036 8.036 0 0 0 3.2792969 6.7871094 L 3.6484375 5.8359375 L 2.7148438 5.4746094 L 2.3535156 6.4101562 A 7.96 7.96 0 0 0 1.2636719 6.1308594 A 6.987 6.987 0 0 1 8 1 z M 9.0644531 1.0898438 A 6.986 6.986 0 0 1 15 8 C 15 8.31 14.973547 8.6121563 14.935547 8.9101562 A 6.975 6.975 0 0 1 13.90625 8.6660156 L 14.265625 7.7363281 L 13.333984 7.375 L 12.974609 8.3007812 A 7 7 0 0 1 10.863281 6.7421875 L 11.626953 6.1269531 L 11 5.3496094 L 10.236328 5.9648438 A 6.932 6.932 0 0 1 9.1835938 3.5644531 L 10.146484 3.4160156 L 9.9941406 2.4277344 L 9.0253906 2.578125 A 7.096 7.096 0 0 1 9 2 C 9 1.69 9.0264531 1.3878438 9.0644531 1.0898438 z M 1.25 6.1738281 A 6.973 6.973 0 0 0 1.2246094 6.2714844 A 6.987 6.987 0 0 1 1.25 6.1738281 z M 1.0625 7.1074219 C 1.3801554 7.1614279 1.6894983 7.2449412 1.9921875 7.3398438 L 1.6308594 8.2714844 L 2.5644531 8.6328125 L 2.921875 7.7089844 A 7 7 0 0 1 5.0292969 9.2695312 L 4.2695312 9.8808594 L 4.8964844 10.660156 L 5.6582031 10.046875 A 6.94 6.94 0 0 1 6.6992188 12.445312 L 5.7519531 12.59375 L 5.9042969 13.582031 L 6.8574219 13.433594 C 6.8974219 13.928594 6.8988906 14.420484 6.8378906 14.896484 A 6.987 6.987 0 0 1 1 8 C 1 7.6970573 1.0245121 7.400368 1.0625 7.1074219 z " />
</svg>

<svg xmlns="http://www.w3.org/2000/svg" width="16" height="16"><path d="M8 0C3.588 0 0 3.588 0 8s3.588 8 8 8 8-3.588 8-8-3.588-8-8-8zm0 1c.023 0 .045.004.068.004.34.003.67.036.996.086A6.986 6.986 0 0 1 15 8c0 .31-.026.612-.064.91a6.975 6.975 0 0 1-1.03-.244l.36-.93-.932-.361-.36.926a7 7 0 0 1-2.11-1.559l.763-.615L11 5.35l-.764.615a6.932 6.932 0 0 1-1.052-2.4l.962-.149-.152-.988-.969.15A7.096 7.096 0 0 1 9 2c0-.31.026-.612.064-.91a7.043 7.043 0 0 0-.996-.086C8.028 1.33 8 1.662 8 2c0 .246.011.49.033.73l-1.004.157.153.988 1.011-.156A7.94 7.94 0 0 0 9.46 6.592l-.795.638.627.778.795-.64a8.04 8.04 0 0 0 2.527 1.866l-.363.938.932.361.363-.935c.386.124.78.227 1.19.293A6.987 6.987 0 0 1 8 15c-.057 0-.112-.006-.168-.008.07-.559.065-1.133.014-1.713l1.023-.158-.154-.988-1.008.156a7.91 7.91 0 0 0-1.27-2.87l.797-.64L6.607 8l-.804.646a8.036 8.036 0 0 0-2.524-1.859l.37-.951-.934-.361-.361.935a7.96 7.96 0 0 0-1.094-.28 6.973 6.973 0 0 0-.198.977c.318.054.627.138.93.233l-.361.931.933.362.358-.924a7 7 0 0 1 2.107 1.56l-.76.612.627.78.762-.614A6.94 6.94 0 0 1 6.7 12.445l-.949.149.154.988.953-.148c.04.495.041.986-.02 1.462A6.987 6.987 0 0 1 1 8c0-.303.025-.6.063-.893A6.987 6.987 0 0 1 8 1zM6.846 14.896z" fill="#dedede"/></svg>
